assets/Admission tickets/Flat/admission_tickets_flat.svg

<svg width="32" height="32" viewBox="0 0 32 32" fill="none" xmlns="http://www.w3.org/2000/svg">
<path d="M29.31 19.3589C28.68 19.3589 28.17 18.8551 28.17 18.2327C28.17 17.6103 28.68 17.1065 29.31 17.1065H29.53C29.79 17.1065 30.01 16.899 30.01 16.6323V15.3776C30.01 15.1207 29.8 14.9034 29.53 14.9034H29.35C28.72 14.9034 28.18 14.4193 28.17 13.7969C28.16 13.1646 28.67 12.6509 29.31 12.6509H29.53C29.79 12.6509 30.01 12.4435 30.01 12.1767V10.6356C30.01 10.3985 29.83 10.2009 29.59 10.1712C28.16 9.98353 27.02 8.87704 26.8 7.47418C26.76 7.20744 26.52 7 26.24 7H5.75C5.47 7 5.23 7.19757 5.19 7.47418C4.97 8.86716 3.84 9.96376 2.42 10.1613C2.18 10.191 2 10.3886 2 10.6257V12.1767C2 12.4336 2.21 12.6509 2.48 12.6509H2.66C3.29 12.6509 3.83 13.135 3.84 13.7574C3.85 14.3897 3.34 14.9034 2.7 14.9034H2.48C2.22 14.9034 2 15.1108 2 15.3776V16.6323C2 16.8891 2.21 17.1065 2.48 17.1065H2.7C3.33 17.1065 3.84 17.6103 3.84 18.2327C3.84 18.8551 3.33 19.3589 2.7 19.3589H2.48C2.22 19.3589 2 19.5664 2 19.8331V21.394C2 21.6312 2.18 21.8287 2.42 21.8584C3.84 22.0461 4.97 23.1427 5.19 24.5357C5.23 24.8024 5.47 25 5.75 25H26.26C26.54 25 26.78 24.8024 26.82 24.5357C27.04 23.1427 28.17 22.0461 29.58 21.8584C29.82 21.8287 30 21.6312 30 21.394V19.8331C30 19.5763 29.79 19.3589 29.52 19.3589H29.31Z" fill="#F8312F"/>
<path d="M23 12C22.4516 12 22 12.448 22 12.992V19.008C22 19.552 22.4516 20 23 20C23.5484 20 24 19.552 24 19.008V12.992C24 12.4373 23.5484 12 23 12Z" fill="#CA0B4A"/>
<path d="M18.005 16C18.005 17.1046 17.1096 18 16.005 18C14.9004 18 14.005 17.1046 14.005 16C14.005 14.8955 14.9004 14 16.005 14C17.1096 14 18.005 14.8955 18.005 16Z" fill="#CA0B4A"/>
<path d="M8.00003 12.992C8.00003 12.448 8.45615 12 9.01002 12C9.56388 12 10.02 12.4373 10.02 12.992V19.008C10.02 19.552 9.56388 20 9.01002 20C8.45615 20 8.00003 19.552 8.00003 19.008V12.992Z" fill="#CA0B4A"/>
<path d="M8.55 10.0118C7.29513 10.0118 6.26495 10.9836 6.26495 12.2V19.8313C6.26495 21.059 7.30703 22.0194 8.55 22.0194H23.46C24.7149 22.0194 25.745 21.0477 25.745 19.8313V12.2C25.745 10.9836 24.7149 10.0118 23.46 10.0118H8.55ZM23.46 21.4493H20.635V10.5819H23.46C24.4251 10.5819 25.1749 11.323 25.1749 12.2V19.8313C25.1749 20.7083 24.4251 21.4493 23.46 21.4493ZM20.0649 21.4493H11.945V10.5819H20.0649V21.4493ZM11.3749 10.5819V21.4493H8.55C7.59297 21.4493 6.83505 20.716 6.83505 19.8313V12.2C6.83505 11.323 7.58487 10.5819 8.55 10.5819H11.3749Z" fill="#CA0B4A"/>
</svg>

<svg xmlns="http://www.w3.org/2000/svg" width="32" height="32" fill="none"><path fill="#F8312F" d="M29.31 19.359c-.63 0-1.14-.504-1.14-1.126 0-.623.51-1.127 1.14-1.127h.22c.26 0 .48-.207.48-.474v-1.254a.477.477 0 0 0-.48-.475h-.18c-.63 0-1.17-.484-1.18-1.106a1.13 1.13 0 0 1 1.14-1.146h.22c.26 0 .48-.207.48-.474v-1.541a.472.472 0 0 0-.42-.465c-1.43-.187-2.57-1.294-2.79-2.697A.568.568 0 0 0 26.24 7H5.75c-.28 0-.52.198-.56.474-.22 1.393-1.35 2.49-2.77 2.687a.472.472 0 0 0-.42.465v1.55c0 .258.21.475.48.475h.18c.63 0 1.17.484 1.18 1.106a1.13 1.13 0 0 1-1.14 1.146h-.22c-.26 0-.48.208-.48.475v1.254c0 .257.21.474.48.474h.22c.63 0 1.14.504 1.14 1.127 0 .622-.51 1.126-1.14 1.126h-.22c-.26 0-.48.207-.48.474v1.561c0 .237.18.435.42.464a3.228 3.228 0 0 1 2.77 2.678.56.56 0 0 0 .56.464h20.51a.56.56 0 0 0 .56-.464 3.227 3.227 0 0 1 2.76-2.678c.24-.03.42-.227.42-.464v-1.56a.477.477 0 0 0-.48-.475h-.21Z"/><path fill="#CA0B4A" d="M23 12c-.548 0-1 .448-1 .992v6.016a1.001 1.001 0 0 0 2 0v-6.016A.994.994 0 0 0 23 12ZM18.005 16a2 2 0 1 1-4 0 2 2 0 0 1 4 0ZM8 12.992c0-.544.456-.992 1.01-.992a1 1 0 0 1 1.01.992v6.016c0 .544-.456.992-1.01.992S8 19.552 8 19.008v-6.016Z"/><path fill="#CA0B4A" d="M8.55 10.012c-1.255 0-2.285.972-2.285 2.188v7.631c0 1.228 1.042 2.188 2.285 2.188h14.91c1.255 0 2.285-.971 2.285-2.188V12.2c0-1.216-1.03-2.188-2.285-2.188H8.55Zm14.91 11.437h-2.825V10.582h2.825c.965 0 1.715.741 1.715 1.618v7.631c0 .877-.75 1.618-1.715 1.618Zm-3.395 0h-8.12V10.582h8.12v10.867Zm-8.69-10.867v10.867H8.55c-.957 0-1.715-.733-1.715-1.618V12.2c0-.877.75-1.618 1.715-1.618h2.825Z"/></svg>
